packages/icons/src/components/Logo/assets/light/joomla.svg

<svg width="20" height="20" viewBox="0 0 20 20" fill="none" xmlns="http://www.w3.org/2000/svg">
<g >
<path d="M19.8601 2.71138C19.8601 1.26224 18.6853 0.0874731 17.2361 0.0874731C15.9129 0.0874731 14.8191 1.06707 14.6389 2.34051L14.6123 2.32649C12.4664 1.35865 10.6589 3.0729 10.6589 3.0729L5.87765 7.87756L7.76683 9.69687L11.6152 5.91604C13.4122 4.11893 14.3907 5.33528 14.3907 5.33528C15.7435 6.47811 14.4373 7.83091 14.4373 7.83091L16.3732 9.69687C17.9541 7.98948 18.0457 6.49937 17.5652 5.31402C18.859 5.15202 19.8601 4.04899 19.8601 2.71138Z" fill="#F9AE41"/>
<path d="M17.5896 14.7788C17.5985 14.762 17.6036 14.7523 17.6036 14.7523C18.5715 12.6063 16.8572 10.7988 16.8572 10.7988L12.0524 6.01743L10.2332 7.90675L14.014 11.755C15.8111 13.5521 14.5947 14.5307 14.5947 14.5307C13.452 15.8835 12.0992 14.5773 12.0992 14.5773L10.2332 16.5131C11.9405 18.0939 13.4307 18.1856 14.616 17.7051C14.778 18.9988 15.8811 20 17.2187 20C18.6678 20 19.8425 18.8252 19.8425 17.3761C19.8425 16.0529 18.863 14.9591 17.5896 14.7788Z" fill="#EE4035"/>
<path d="M12.0933 10.3031L8.24497 14.0839C6.44786 15.8811 5.46936 14.6648 5.46936 14.6648C4.11657 13.5219 5.42271 12.1691 5.42271 12.1691L3.48698 10.3031C1.90614 12.0104 1.8144 13.5005 2.29485 14.6859C1.00108 14.848 0 15.9509 0 17.2886C0 18.7378 1.17476 19.9125 2.62397 19.9125C3.94718 19.9125 5.04102 18.933 5.22123 17.6596C5.23806 17.6685 5.24779 17.6735 5.24779 17.6735C7.39373 18.6416 9.2012 16.9271 9.2012 16.9271L13.9825 12.1223L12.0933 10.3031Z" fill="#4F91CD"/>
<path d="M5.84607 8.245C4.04897 6.44789 5.26515 5.46931 5.26515 5.46931C6.40814 4.11651 7.76085 5.42273 7.76085 5.42273L9.6268 3.48699C7.91949 1.90615 6.4294 1.81448 5.24405 2.29493C5.08206 1.00109 3.97911 0 2.64127 0C1.19237 0 0.0176933 1.17476 0.0175375 2.62391C0.0175375 3.94719 0.997046 5.04104 2.27056 5.22126C2.2616 5.23808 2.25661 5.24789 2.25661 5.24789C1.28855 7.39368 3.00295 9.20116 3.00295 9.20116L7.80773 13.9825L9.62695 12.0934L5.84607 8.245Z" fill="#7AC043"/>
</g>
<defs>
<clipPath id="clip0_341_653">
<rect width="20" height="20" fill="white"/>
</clipPath>
</defs>
</svg>

<svg xmlns="http://www.w3.org/2000/svg" width="20" height="20" fill="none" viewBox="0 0 20 20">
    <path fill="#f9ae41" d="M19.86 2.711a2.624 2.624 0 0 0-5.221-.37l-.027-.015c-2.146-.967-3.953.747-3.953.747L5.878 7.878l1.889 1.819 3.848-3.781c1.797-1.797 2.776-.58 2.776-.58 1.352 1.142.046 2.495.046 2.495l1.936 1.866c1.581-1.708 1.673-3.198 1.192-4.383a2.624 2.624 0 0 0 2.295-2.603"/>
    <path fill="#ee4035" d="m17.59 14.779.014-.027c.968-2.146-.747-3.953-.747-3.953l-4.805-4.782-1.819 1.89 3.781 3.848c1.797 1.797.58 2.776.58 2.776-1.142 1.352-2.495.046-2.495.046l-1.866 1.936c1.707 1.58 3.198 1.673 4.383 1.192a2.624 2.624 0 1 0 2.974-2.926"/>
    <path fill="#4f91cd" d="m12.093 10.303-3.848 3.78c-1.797 1.798-2.776.582-2.776.582-1.352-1.143-.046-2.496-.046-2.496l-1.936-1.866c-1.58 1.707-1.673 3.198-1.192 4.383A2.624 2.624 0 1 0 5.22 17.66l.027.014c2.146.968 3.953-.747 3.953-.747l4.781-4.805z"/>
    <path fill="#7ac043" d="M5.846 8.245c-1.797-1.797-.58-2.776-.58-2.776 1.142-1.352 2.495-.046 2.495-.046l1.866-1.936c-1.708-1.58-3.198-1.673-4.383-1.192A2.624 2.624 0 1 0 2.271 5.22l-.014.027c-.968 2.146.746 3.953.746 3.953l4.805 4.781 1.819-1.889z"/>
</svg>
